X:1
T:Title
%%score { 1 | ( 2 3 ) }
L:1/8
M:6/4
K:Bb
V:1 treble nm="Grand Piano"
V:2 bass 
V:3 bass 
V:1
 z6 z4[Q:1/4=114] [DF]2 | [DB]2 [FA]2 .[G,EG]2 [B,DF]2[K:bass] [F,B,D]2 [F,CE]2 | %2
 [DF]6- [DF]4 [DF]2 | [EG]2 [EA]2 [DB]2 c2 B2 A2 |[M:5/4] [DB]2- [DB]2- [DB]6 |[M:1/4] [Fd]2 | %6
[M:6/4] [Fc]2 [FA]2 [Ac]2 [GB]2 [FA]2 [=EG]2 | [FA]6- [FA]4 [FA]2 | %8
 [=EG]2 [EA]2 [GB]2 [FA]2 [GB]2 [EG]2 |[M:5/4] F2- F2- F6 |[M:1/4] F2 | %11
[M:6/4] [DF]2 [DF]2 [DF]2 [DB]4 [B,FA]2 | [B,EG]2 [B,EG]2 [B,EG]2 [EGc]4 [CGB]2 | %13
 [CFA]2 [CFA]2 [CFA]2 [B,FB]2 [Fc]2 [Fd]2 |[M:5/4] c2 B2 A2 [DB]4 |] %15
V:2
 z6 z4 [B,,B,]2 | [B,,F,]2 .[B,,F,]3 A, B,,2 B,,2 B,,2 | [B,,B,]6- [B,,B,]4 [B,,B,]2 | %3
 [E,B,]2 [C,F,]2 [B,,F,]2 [E,G,E]2 [F,D]2 [F,E]2 |[M:5/4] [B,,F,]2- [B,,F,]2- [B,,F,]6 | %5
[M:1/4] [B,,B,]2 |[M:6/4] [F,A,]2 [F,C]2 [F,C]2 [C,C]2 [C,C]2 [C,C]2 | [F,C]6- [F,C]4 [F,C]2 | %8
 [C,C]2 [C,C]2 [C,C]2 [C,C]2 [C,C]2 [C,B,]2 |[M:5/4] [F,A,]2- [F,A,]2- [F,A,]6 |[M:1/4] [F,A,E]2 | %11
[M:6/4] [B,,B,]2 [B,,B,]2 [B,,B,]2 [B,,F,]4 D,2 | E,2 E,2 E,2 C,4 =E,2 | %13
 F,2 F,2 E,2 D,2 [C,A,]2 [B,,B,]2 |[M:5/4] [E,G,E]2 [F,D]2 [F,E]2 [B,,F,]4 |] %15
V:3
 x12 | z4 B,,2 z6 | x12 | x12 |[M:5/4] x10 |[M:1/4] x2 |[M:6/4] x12 | x12 | x12 |[M:5/4] x10 | %10
[M:1/4] x2 |[M:6/4] x12 | x12 | x12 |[M:5/4] x10 |] %15

